X: 33607
T: Rakish Paddy
R: reel
M: 4/4
K: Adorian
AB|:c2AB c2AB|cBAG EG G2|Add^c defe|dcAG FGAB|
c2AB c2AB|cBAG EFGE|DEFG ABcA|1 dcAG FDAB:|2 dcAG FDD2||
|:egfg ec~c2|ecgc ec~c2|eaga ed~d2|edad ed~d2|
egfg ec~c2|effe defg|afge fde^c|1 dcAG FDD2:|2 dcAG FDAB||
|:c2gc acgc|c2gc edcd|d2ad bdad|d2ad ed^cd|
c2gc acgc|fgfe defg|afge fde^c|1 dcAG FDAB:|2 dcAG FDD2||
|:eg~g2 ag~g2|eg~g2 ed^cd|ea~a2 ba~a2|ea~a2 ed^cd|
eg~g2 ag~g2|fgfe defg|afge fde^c|1 dcAG FDD2:|2 dcAG FD||

